logos/gudmap.svg

<svg width="264" height="49" viewBox="0 0 264 49" fill="none"
    xmlns="http://www.w3.org/2000/svg">
    <g clip-path="url(#clip0_1749_829)">
        <mask id="mask0_1749_829" style="mask-type:luminance" maskUnits="userSpaceOnUse" x="0" y="0" width="264" height="49">
            <path d="M264 0H0V49H264V0Z" fill="white"/>
        </mask>
        <g mask="url(#mask0_1749_829)">
            <path d="M62.9018 0C62.752 2.22531 62.9775 4.57684 62.2882 6.6213C61.9598 7.60025 59.9531 8.34013 58.6061 8.56014C56.9016 8.83836 56.2961 9.42985 56.3048 11.141C56.308 19.2236 57.7955 27.2359 60.6921 34.7733C61.9015 37.9075 64.2662 39.2656 67.7279 40.2611C64.8042 34.897 67.9703 32.0549 71.5454 29.4246C71.9996 29.0902 72.8429 28.8182 73.2908 29.0124C78.2969 31.1811 79.9257 35.2932 77.6377 40.6568C81.0712 39.5696 84.0675 38.6535 85.4805 35.1365C88.5887 27.4939 90.0864 19.2838 89.8785 11.0271C89.8591 10.2542 89.1467 9.00118 88.5085 8.81157C83.4339 7.32975 82.2382 5.41926 83.3152 0H87.3977C90.4446 1.21287 91.4377 3.37016 91.0184 6.63727C90.6337 10.2599 90.5185 13.9064 90.6737 17.5464C91.0061 12.8134 91.3383 8.08062 91.6704 3.34801L92.0534 3.35522C91.7585 11.2016 91.4633 19.0478 91.1677 26.8938L91.8325 26.9597C92.0468 24.0471 92.3634 21.1376 92.4436 18.2213C92.5132 15.6941 92.0396 13.1756 94.2305 11.0832C94.7725 10.568 94.3757 9.0223 94.3327 7.94958C94.2918 6.94487 93.9507 5.91594 94.0893 4.9473C94.3747 2.95282 96.0955 2.07589 97.8522 3.02238C101.147 4.79737 102.046 7.92485 102.343 11.361C102.64 14.7801 101.662 17.6438 98.5369 19.3317C97.7187 19.7737 96.1922 19.8665 95.5243 19.3832C94.7188 18.8015 94.2218 17.4706 94.0719 16.3974C93.9185 15.3061 94.3512 14.1304 94.5271 12.9968L93.6945 12.8273C93.5186 14.0175 93.0379 15.2572 93.2194 16.3902C94.0003 21.2638 93.1683 25.8437 91.2071 30.3016C90.9169 31.0977 90.7038 31.9202 90.5709 32.7577C89.4402 37.8266 87.0791 41.7743 81.9345 43.9151C79.1944 45.0564 76.9284 47.2915 74.2865 48.7383C73.4683 49.1865 71.9101 49.0232 71.0463 48.5244C68.0262 46.8695 65.1419 44.9742 62.4211 42.8568C60.3817 41.1921 58.1024 39.1878 57.2351 36.8507C55.4046 31.6758 53.9685 26.3677 52.9393 20.9727C52.4065 18.3888 52.8473 15.6039 52.8473 12.9103L53.6016 12.8469C53.829 17.4057 54.0564 21.9642 54.2838 26.5223L55.1532 26.4816L54.2081 2.2351L54.5318 2.21809C54.8516 6.52203 55.1716 10.8255 55.4917 15.1284C55.4917 12.5074 55.7305 9.86111 55.4406 7.27359C54.9082 2.48756 55.057 1.97645 59.3272 0L62.9018 0ZM86.8822 34.9299C90.9585 31.5701 89.9087 26.8567 90.418 22.3783C89.2101 26.6655 88.0538 30.7709 86.8822 34.9299ZM59.1937 34.4992C57.9924 29.8703 56.9211 25.7428 55.8492 21.6152C56.8914 25.7453 54.8847 30.6061 59.1937 34.4992ZM63.0021 42.1051C63.1947 41.911 63.3878 41.7171 63.5815 41.5234L57.9715 34.6192C58.126 36.19 58.667 37.6971 59.5454 39.0041C60.4238 40.3111 61.6119 41.3773 63.0021 42.1051ZM82.5885 41.7754L83.0488 42.2365C86.132 40.7634 87.7429 38.1661 88.8403 35.1803L88.2661 34.7341L82.5896 41.7754M82.4602 40.2003L75.8402 42.5261C79.3831 43.9625 80.59 43.5534 82.4525 40.2008M69.9289 42.5034L63.8131 40.107C65.7053 43.5194 66.4898 43.8399 69.9289 42.5034ZM78.7413 45.1976C78.7222 44.9296 78.7031 44.6619 78.684 44.3943C77.5497 44.3021 76.3352 43.9388 75.317 44.2397C74.8537 44.3768 74.778 45.8256 74.5264 46.6794L75.1851 47.1534L78.7413 45.1986M67.6215 44.3881C67.5731 44.5973 67.5247 44.8067 67.4763 45.0162C68.4638 45.619 69.4518 46.2213 71.1312 47.2451C70.7957 45.686 70.8014 44.4041 70.4383 44.2897C69.594 44.0233 68.5717 44.3196 67.6215 44.3881Z" fill="white"/>
            <path d="M264.001 15.8095C261.592 22.7363 258.029 25.1667 249.677 25.4846C247.299 25.5752 244.911 25.6005 242.535 25.4902C240.497 25.3954 239.856 26.2842 239.892 28.2117C239.972 32.4588 239.892 36.7085 239.92 40.9571C239.93 42.5543 239.775 43.7909 237.652 43.7708C235.646 43.7528 235.302 42.7403 235.309 41.0308C235.353 29.4744 235.35 17.9181 235.301 6.36208C235.291 4.46755 235.793 3.51385 237.858 3.58392C242.444 3.73849 247.036 3.7251 251.621 3.8807C257.926 4.09401 262.261 6.98809 263.997 13.258L264.001 15.8095ZM246.989 7.46674C246.982 7.54351 246.974 7.62131 246.967 7.69757C245.266 7.69757 243.538 7.52084 241.878 7.78001C241.162 7.89233 240.064 8.87695 240.03 9.51275C239.85 12.9004 239.894 16.3056 240.011 19.6995C240.031 20.2662 240.808 21.3034 241.204 21.2885C245.756 21.1159 250.372 21.1741 254.82 20.3523C257.766 19.8072 259.386 16.7199 259.218 14.1859C259.029 11.3728 257.188 9.02894 254.041 8.2803C251.756 7.73673 249.345 7.71921 246.99 7.46674" fill="white"/>
            <path d="M179.858 13.9036C175.204 24.6576 170.777 34.8995 166.347 45.1413L165.579 45.2717L152.303 14.4781L151.761 14.4812C150.984 17.72 150.187 20.9546 149.434 24.199C148.146 29.7399 146.887 35.2874 145.611 40.8304C144.907 43.8904 144.37 44.1851 140.762 43.186C143.98 29.6569 147.2 16.1176 150.423 2.56788L151.115 2.51636L165.932 36.0536C171.097 24.4062 175.933 13.5007 180.769 2.59519L181.481 2.53903L191.13 43.0309C187.847 44.3793 187.039 43.9687 186.317 40.8443C184.445 32.7379 182.565 24.6329 180.677 16.5292C180.513 15.8265 180.249 15.1474 179.859 13.9046" fill="white"/>
            <path d="M41.1844 13.1189L38.026 15.4509C37.0431 14.3983 36.208 13.4564 35.3222 12.5656C27.214 4.40267 13.4703 5.59029 7.03691 15.0505C3.76756 19.8592 3.22803 25.0281 5.77888 30.2809C8.69383 36.287 13.7618 39.4068 20.2902 40.1348C24.8248 40.6371 29.381 39.403 33.0542 36.6776C34.3978 35.7909 35.5507 34.6409 36.4442 33.2961C37.3202 31.8287 37.6204 30.0171 38.1687 28.356C36.6747 28.0125 35.1614 27.7606 33.6372 27.6017C31.0055 27.4729 28.3642 27.5419 25.7279 27.5553C24.3855 27.562 23.6823 27.0159 23.6588 25.5974C23.6363 24.2171 24.2214 23.5329 25.6083 23.5334C30.6266 23.5334 35.6459 23.5442 40.6638 23.5241C42.2143 23.5174 42.6664 24.2872 42.6909 25.7536C42.7866 31.4139 40.7543 36.0217 36.1931 39.4563C31.8249 42.7301 26.4645 44.3753 21.0265 44.1112C15.5885 43.847 10.41 41.6899 6.37465 38.0079C4.30008 36.1433 2.65546 33.8441 1.55609 31.2714C0.456726 28.6987 -0.0707629 25.9149 0.0106087 23.1151C0.0919803 20.3153 0.780243 17.5674 2.02714 15.0639C3.27403 12.5604 5.04938 10.3621 7.22868 8.62297C11.9173 4.68066 17.9523 2.74586 24.04 3.2333C30.1277 3.72074 35.7837 6.59163 39.7954 11.2306C40.2357 11.7309 40.5906 12.3064 41.1864 13.1205" fill="white"/>
            <path d="M106.195 23.6272C106.195 17.9426 106.271 12.2565 106.153 6.57291C106.109 4.41768 106.709 3.42997 109.006 3.57733C113.826 3.88647 118.74 3.57475 123.462 4.39449C134.383 6.28902 141.24 14.9841 140.59 25.3517C140.018 34.4853 131.382 42.5941 121.146 43.3938C117.003 43.7168 112.834 43.6225 108.677 43.7544C106.86 43.8116 106.134 43.0769 106.163 41.188C106.253 35.3355 106.196 29.4808 106.195 23.6272ZM110.78 40.1936C115.757 39.613 120.402 39.6047 124.738 38.4418C131.617 36.5983 136.317 30.0177 136.239 23.5752C136.16 16.959 131.534 10.7056 124.567 8.8585C120.864 7.87955 116.856 8.0604 112.991 7.66676C111.135 7.47818 110.721 8.3175 110.74 10.0368C110.824 17.4207 110.779 24.8061 110.78 32.192C110.78 34.5564 110.78 36.9208 110.78 40.1916" fill="white"/>
            <path d="M212.271 2.86159L231.486 43.118C228.132 44.2325 227.411 43.964 226.209 41.2776C224.961 38.4891 223.872 35.6203 222.454 32.923C222.167 32.4593 221.783 32.0646 221.328 31.7665C220.874 31.4685 220.36 31.2745 219.823 31.198C214.986 31.0275 210.136 31.0125 205.302 31.2073C204.33 31.2465 203.015 32.2182 202.531 33.1204C201.13 35.729 200.073 38.5216 198.879 41.241C197.665 44.0063 197.032 44.2618 193.626 43.0959C199.615 29.6626 205.594 16.2503 211.565 2.85901L212.274 2.86159M211.977 11.363C209.567 16.893 207.477 21.693 205.219 26.8716H219.782C217.191 21.7228 214.755 16.8858 211.977 11.363Z" fill="white"/>
            <path d="M43.8871 11.8736C44.2532 8.55294 44.8495 5.29665 47.9921 3.3336C50.2933 1.89403 52.2274 2.95335 52.277 5.67225C52.343 9.34177 52.3855 13.02 52.1865 16.6808C52.1313 17.6901 51.4036 19.1024 50.5797 19.5058C49.7702 19.9031 48.2784 19.5419 47.3804 19.0117C44.735 17.4464 43.7152 14.9264 43.8871 11.8736Z" fill="white"/>
        </g>
    </g>
    <defs>
        <clipPath id="clip0_1749_829">
            <rect width="264" height="49" fill="white"/>
        </clipPath>
    </defs>
</svg>

<svg xmlns="http://www.w3.org/2000/svg" width="264" height="49" fill="none" viewBox="0 0 264 49">
    <g clip-path="url(#a)">
        <mask id="b" width="264" height="49" x="0" y="0" maskUnits="userSpaceOnUse" style="mask-type:luminance">
            <path fill="currentColor" d="M264 0H0v49h264z"/>
        </mask>
        <g fill="currentColor" mask="url(#b)">
            <path d="M62.902 0c-.15 2.225.075 4.577-.614 6.621-.328.98-2.335 1.72-3.682 1.94-1.704.277-2.31.869-2.301 2.58a66 66 0 0 0 4.387 23.632c1.21 3.134 3.574 4.493 7.036 5.488-2.924-5.364.242-8.206 3.817-10.836.455-.335 1.298-.607 1.746-.413 5.006 2.17 6.635 6.281 4.347 11.645 3.433-1.087 6.43-2.003 7.843-5.52a60 60 0 0 0 4.398-24.11c-.02-.773-.732-2.026-1.37-2.215C83.434 7.33 82.239 5.419 83.315 0h4.083c3.047 1.213 4.04 3.37 3.62 6.637-.384 3.623-.5 7.27-.344 10.91l.996-14.199.383.007q-.442 11.77-.885 23.539l.664.066c.215-2.913.531-5.822.612-8.739.07-2.527-.404-5.045 1.787-7.138.541-.515.145-2.06.102-3.133-.041-1.005-.382-2.034-.244-3.003.286-1.994 2.007-2.871 3.763-1.925 3.295 1.775 4.194 4.903 4.491 8.339.297 3.42-.681 6.283-3.806 7.97-.818.443-2.345.535-3.013.052-.805-.581-1.302-1.912-1.452-2.986-.154-1.09.28-2.267.455-3.4l-.832-.17c-.176 1.19-.657 2.43-.476 3.563.781 4.874-.05 9.454-2.012 13.912-.29.796-.503 1.618-.636 2.456-1.13 5.069-3.492 9.016-8.636 11.157-2.74 1.141-5.007 3.377-7.648 4.823-.819.449-2.377.285-3.24-.214a64.6 64.6 0 0 1-8.626-5.667c-2.04-1.665-4.319-3.67-5.186-6.006a109 109 0 0 1-4.296-15.878c-.532-2.584-.092-5.37-.092-8.063l.755-.063.682 13.675.87-.04-.946-24.247.324-.017.96 12.91c0-2.62.239-5.267-.051-7.854-.533-4.786-.384-5.298 3.886-7.274zm23.98 34.93c4.076-3.36 3.027-8.073 3.536-12.552zm-27.688-.43-3.345-12.885c1.042 4.13-.964 8.991 3.345 12.884m3.808 7.605.58-.582-5.61-6.904a9.54 9.54 0 0 0 1.573 4.385 9.45 9.45 0 0 0 3.457 3.101m19.586-.33.46.462c3.084-1.474 4.695-4.07 5.792-7.057l-.574-.446-5.676 7.041m-.13-1.575-6.62 2.326c3.543 1.436 4.75 1.027 6.612-2.325M69.93 42.503l-6.116-2.396c1.892 3.412 2.677 3.733 6.116 2.396m8.812 2.695-.057-.804c-1.134-.092-2.349-.455-3.367-.154-.463.137-.539 1.586-.79 2.44l.658.473zm-11.12-.81-.145.627 3.655 2.23c-.335-1.56-.33-2.842-.693-2.956-.844-.267-1.866.03-2.817.098M264.001 15.81c-2.409 6.926-5.972 9.357-14.324 9.675-2.378.09-4.766.116-7.142.005-2.038-.095-2.679.794-2.643 2.722.08 4.247 0 8.497.028 12.745.01 1.597-.145 2.834-2.268 2.814-2.006-.018-2.35-1.03-2.343-2.74q.066-17.335-.008-34.669c-.01-1.894.492-2.848 2.557-2.778 4.586.154 9.178.141 13.763.297 6.305.213 10.64 3.107 12.376 9.377zm-17.012-8.343-.022.23c-1.701 0-3.429-.176-5.089.083-.716.112-1.814 1.097-1.848 1.733-.18 3.387-.136 6.793-.019 10.187.02.566.797 1.603 1.193 1.588 4.552-.172 9.168-.114 13.616-.936 2.946-.545 4.566-3.632 4.398-6.166-.189-2.813-2.03-5.157-5.177-5.906-2.285-.543-4.696-.56-7.051-.813M179.858 13.904c-4.654 10.754-9.081 20.996-13.511 31.237l-.768.13-13.276-30.793-.542.003c-.777 3.239-1.574 6.474-2.327 9.718-1.288 5.54-2.547 11.088-3.823 16.631-.704 3.06-1.241 3.355-4.849 2.356l9.661-40.618.692-.052 14.817 33.538 14.837-33.459.712-.056 9.649 40.492c-3.283 1.348-4.091.938-4.813-2.187a12823 12823 0 0 0-5.64-24.315c-.164-.703-.428-1.382-.818-2.624M41.184 13.119l-3.158 2.332c-.983-1.053-1.818-1.995-2.704-2.885C27.214 4.403 13.47 5.59 7.037 15.05c-3.27 4.81-3.809 9.978-1.258 15.23 2.915 6.007 7.983 9.127 14.511 9.855 4.535.502 9.091-.732 12.764-3.457a12 12 0 0 0 3.39-3.382c.876-1.467 1.176-3.279 1.725-4.94a38 38 0 0 0-4.532-.754c-2.631-.13-5.273-.06-7.91-.047-1.341.007-2.045-.54-2.068-1.958-.023-1.38.562-2.064 1.95-2.064 5.018 0 10.037.011 15.055-.009 1.55-.007 2.002.763 2.027 2.23.096 5.66-1.937 10.268-6.498 13.702a23.4 23.4 0 0 1-15.166 4.655 23.42 23.42 0 0 1-14.652-6.103 19.2 19.2 0 0 1-4.819-6.737 19.33 19.33 0 0 1 .471-16.207A19.2 19.2 0 0 1 7.23 8.623a23.24 23.24 0 0 1 16.811-5.39 23.3 23.3 0 0 1 15.755 7.998c.44.5.796 1.075 1.391 1.89M106.195 23.627c0-5.684.076-11.37-.042-17.054-.044-2.155.556-3.143 2.853-2.996 4.82.31 9.734-.002 14.456.817 10.921 1.895 17.778 10.59 17.128 20.958-.572 9.133-9.208 17.242-19.444 18.042-4.143.323-8.312.229-12.469.36-1.817.058-2.543-.677-2.514-2.566.09-5.852.033-11.707.032-17.56m4.585 16.567c4.977-.581 9.622-.59 13.958-1.752 6.879-1.844 11.579-8.424 11.501-14.867-.079-6.616-4.705-12.87-11.672-14.716-3.703-.98-7.711-.799-11.576-1.192-1.856-.189-2.27.65-2.251 2.37.084 7.384.039 14.77.04 22.155v8M212.271 2.862l19.215 40.256c-3.354 1.114-4.075.846-5.277-1.84-1.248-2.789-2.337-5.658-3.755-8.355a3.7 3.7 0 0 0-1.126-1.157 3.7 3.7 0 0 0-1.505-.568c-4.837-.17-9.687-.186-14.521.01-.972.039-2.287 1.01-2.771 1.912-1.401 2.609-2.458 5.402-3.652 8.121-1.214 2.765-1.847 3.02-5.253 1.855l17.939-40.237.709.003m-.297 8.501c-2.41 5.53-4.5 10.33-6.758 15.509h14.563c-2.591-5.15-5.027-9.986-7.805-15.509M43.887 11.874c.366-3.321.962-6.577 4.105-8.54 2.301-1.44 4.235-.38 4.285 2.338.066 3.67.108 7.348-.09 11.009-.056 1.01-.783 2.421-1.607 2.825-.81.397-2.302.036-3.2-.494-2.645-1.566-3.665-4.086-3.493-7.138"/>
        </g>
    </g>
    <defs>
        <clipPath id="a">
            <path fill="currentColor" d="M0 0h264v49H0z"/>
        </clipPath>
    </defs>
</svg>
